X:1
T:Tetris
T:Tetris
T:ATB Recorder Trio
T:Nikolay Nekrasov
T:Attglas
T:Attglas © 2019
C:Nikolay Nekrasov
Z:Attglas © 2019
%%score 1 2 3
L:1/8
Q:1/4=150
M:4/4
K:Bb
V:1 treble nm="Alto Recorder" snm="A"
V:2 treble nm="Tenor Recorder" snm="T"
V:3 bass+8 nm="Base Recorder" snm="B"
V:1
|:"^Vivace"!f! g2 de f2 ed | c z ce g2 fe | d2 z e f2 g2 | e2 .c2 !breath!.c'2 z2 | %4
 z f z _a (c'2 b)a | g2 z e g2 fe | d2 z e f2 g2 | e2 .c2 !breath!.c2 z2!fine! :|!mp! g4 e4 | %9
 f4 d4 | e4 c4 | =B4 !breath!d2 z2 | g4 e4 | f4 d4 |!<(! (c2 e2 g2) c'2!<)! | %15
!mf! =b4 !breath!.g2 z2!D.C.! |] %16
V:2
|:!f! d2 =Bc (dg/d/) cB | G z Gc e2 dc | =BGBc dGeG | cEGE !breath!.c2 z2 | z _A z c eedc | %5
 B2 z G (Bc/B/) _AG | =BGBc dGeG | cEGE !breath!.c2 z2 :|!mp! e4 c4 | =B4 G4 | c4 G4 | %11
 F4 !breath!=B2 z2 | e4 c4 | =B4 G4 |!<(! (C2 E2 G2) c2!<)! |!mf! d4 !breath!.d2 z2 |] %16
V:3
|:!f! G,,=B,,D,G,, B,,D,F,D, | C,E,G,C, CG,E,G, | =B,D,F,D, =B,,G,,D,B,, | %3
 !breath!C, z C,E, G,C,D,E, | F,C,_A,,C, F,C,F,C, | E,C,E,G, B,G,E,G, | =B,D,F,D, =B,,G,,D,B,, | %7
 C,G,,C,E, !breath!.G,2 z2 :|!mp! C,8 | =B,,8 | C,8 | !breath!_A,,6 z2 | G,,4 C,4 | %13
 (3(=B,,4 D,4 F,4) |!<(! (G,,2 C,2 E,2) G,2!<)! |!mf! .F,2 .F,2 =B,G, !breath!.G,,2 |] %16

